openmetadata-ui/src/main/resources/ui/src/assets/svg/folder.svg

<svg width="16" height="16" viewBox="0 0 16 16" fill="none" xmlns="http://www.w3.org/2000/svg">
<path d="M12.5 3H5.5C5.36739 3 5.24021 3.05268 5.14645 3.14645C5.05268 3.24021 5 3.36739 5 3.5C5 3.63261 5.05268 3.75979 5.14645 3.85355C5.24021 3.94732 5.36739 4 5.5 4H12.5C12.6326 4 12.7598 3.94732 12.8536 3.85355C12.9473 3.75979 13 3.63261 13 3.5C13 3.36739 12.9473 3.24021 12.8536 3.14645C12.7598 3.05268 12.6326 3 12.5 3Z" fill="currentColor"/>
<path d="M12.5003 5H5.57032C5.24769 4.98825 4.93512 4.8846 4.66939 4.70124C4.40366 4.51789 4.19582 4.26246 4.07032 3.965C3.99679 3.73951 3.97779 3.49979 4.01486 3.26553C4.05193 3.03127 4.14403 2.80914 4.28359 2.61737C4.42314 2.4256 4.60619 2.26966 4.8177 2.16234C5.0292 2.05502 5.26314 1.99938 5.50032 2H12.5003C12.6329 2 12.7601 1.94732 12.8539 1.85355C12.9476 1.75979 13.0003 1.63261 13.0003 1.5C13.0003 1.36739 12.9476 1.24021 12.8539 1.14645C12.7601 1.05268 12.6329 1 12.5003 1H5.50032C5.16862 0.999958 4.84023 1.06592 4.53428 1.19405C4.22833 1.32218 3.95094 1.50992 3.71826 1.74632C3.48558 1.98272 3.30227 2.26306 3.17902 2.571C3.05576 2.87895 2.99501 3.20834 3.00032 3.54V14.5C3.00032 14.6326 3.053 14.7598 3.14677 14.8536C3.24053 14.9473 3.36771 15 3.50032 15H12.5003C12.6329 15 12.7601 14.9473 12.8539 14.8536C12.9476 14.7598 13.0003 14.6326 13.0003 14.5V5.5C13.0003 5.36739 12.9476 5.24021 12.8539 5.14645C12.7601 5.05268 12.6329 5 12.5003 5ZM6.00032 6H7.00032V8.3L6.85532 8.15C6.80884 8.10314 6.75354 8.06594 6.69261 8.04055C6.63168 8.01517 6.56633 8.0021 6.50032 8.0021C6.43431 8.0021 6.36896 8.01517 6.30803 8.04055C6.2471 8.06594 6.1918 8.10314 6.14532 8.15L6.00032 8.3V6ZM12.0003 14H4.00032V5.445C4.30006 5.66496 4.63969 5.82458 5.00032 5.915V9.5C5.00081 9.59871 5.03051 9.69507 5.08568 9.77693C5.14085 9.85879 5.21901 9.92249 5.31032 9.96C5.40138 9.99829 5.50173 10.0088 5.59873 9.99006C5.69572 9.97138 5.78501 9.92438 5.85532 9.855L6.50032 9.205L7.14532 9.855C7.19204 9.90134 7.24745 9.938 7.30837 9.96289C7.36929 9.98777 7.43452 10.0004 7.50032 10C7.56591 10.0017 7.63098 9.98799 7.69032 9.96C7.78163 9.92249 7.85979 9.85879 7.91496 9.77693C7.97013 9.69507 7.99983 9.59871 8.00032 9.5V6H12.0003V14Z" fill="currentColor"/>
</svg>

<svg xmlns="http://www.w3.org/2000/svg" width="16" height="16" fill="none"><path fill="currentColor" d="M12.5 3h-7a.5.5 0 1 0 0 1h7a.5.5 0 0 0 0-1Z"/><path fill="currentColor" d="M12.5 5H5.57a1.695 1.695 0 0 1-1.5-1.035A1.5 1.5 0 0 1 5.5 2h7a.5.5 0 0 0 0-1h-7A2.5 2.5 0 0 0 3 3.54V14.5a.5.5 0 0 0 .5.5h9a.5.5 0 0 0 .5-.5v-9a.5.5 0 0 0-.5-.5ZM6 6h1v2.3l-.145-.15a.5.5 0 0 0-.71 0L6 8.3V6Zm6 8H4V5.445c.3.22.64.38 1 .47V9.5a.5.5 0 0 0 .599.49.5.5 0 0 0 .256-.135l.645-.65.645.65a.5.5 0 0 0 .77-.078A.5.5 0 0 0 8 9.5V6h4v8Z"/></svg>
